X: 1
T: Galician Muiñeira
R: jig
M: 6/8
L: 1/8
K: Gmaj
|: d |ded B2 d | ded A2 d | ded fed | cBA B2 G |
ded B2 d | ded A2 d | DFA DF/G/A | cBA G2 :|
|: d |ded fed | cde d2 B | ded fed | cc/B/A B2 G |
ded fed | cBA B2 d | ded ff/e/d | cBA G2 :|

